X:1
T: The May-Day Hornpipe
C:
R:Reel
Q: 232
K:D
M:4/4
L:1/8
|:FE|D2 d2 Bc dB|AB AG F2 AF|E2 e2 ef ed|c2 A2 AG FE|
D2 d2 Bc dB|AB AG F2 A2|BG dB cA ec|d2 D2 D2:|
GF|ED EF GB AG|FE FG A2 FA|BA ^GA Bf ed|c2 A2 A2 GF|
ED EF GB AG|FE FG A2 dA|BG dB cA GE|F2 D2 D2 GF|
ED EF GB AG|FE FG A2 FA|BA ^GA Bf ed|c2 A2 AG FE||
